X:34
T:Norfolk Freeholders, The
M:6/8
L:1/8
B:Thompson's Compleat Collection of 200 Favourite Country Dances, vol. 3 (London, 1773)
Z:Transcribed and edited by Flynn Titford-Mock, 2007
Z:abc's:AK/Fiddler's Companion
K:D
A | dDD FED | fed ecA | dAG FGA | Bdc d2 :|
|: g | fda fda | eca eca | fda fda | Bdc d2 :|

